resources/haticons/SVG/local_mall.svg

<!-- Generated by IcoMoon.io -->
<svg version="1.1" xmlns="http://www.w3.org/2000/svg" width="24" height="24" viewBox="0 0 24 24">
<title>local_mall</title>
<path d="M12 12.984q2.063 0 3.539-1.453t1.477-3.516h-2.016q0 1.219-0.891 2.109t-2.109 0.891-2.109-0.891-0.891-2.109h-2.016q0 2.063 1.477 3.516t3.539 1.453zM12 3q-1.219 0-2.109 0.891t-0.891 2.109h6q0-1.219-0.891-2.109t-2.109-0.891zM18.984 6q0.797 0 1.406 0.609t0.609 1.406v12q0 0.797-0.609 1.383t-1.406 0.586h-13.969q-0.797 0-1.406-0.586t-0.609-1.383v-12q0-0.797 0.609-1.406t1.406-0.609h1.969q0-2.063 1.477-3.539t3.539-1.477 3.539 1.477 1.477 3.539h1.969z"></path>
</svg>

<svg xmlns="http://www.w3.org/2000/svg" width="24" height="24"><path d="M12 12.984q2.063 0 3.539-1.453t1.477-3.516H15q0 1.219-.891 2.109T12 11.015t-2.109-.891T9 8.015H6.984q0 2.063 1.477 3.516T12 12.984zM12 3q-1.219 0-2.109.891T9 6h6q0-1.219-.891-2.109T12 3zm6.984 3q.797 0 1.406.609t.609 1.406v12q0 .797-.609 1.383t-1.406.586H5.015q-.797 0-1.406-.586T3 20.015v-12q0-.797.609-1.406T5.015 6h1.969q0-2.063 1.477-3.539T12 .984t3.539 1.477T17.016 6h1.969z"/></svg>
